src/assets/images/bene13.svg

<svg width="49" height="49" viewBox="0 0 49 49" fill="none" xmlns="http://www.w3.org/2000/svg">
<circle cx="24.5211" cy="24.0934" r="24.0074" fill="url(#paint0_linear_674_9)"/>
<g clip-path="url(#clip0_674_9)">
<path d="M26.8005 16.5812C26.9476 16.6668 27.0613 16.7998 27.1231 16.9585C27.1849 17.1171 27.1912 17.292 27.1408 17.4546L25.4331 23.0024H28.4299C28.5769 23.0023 28.7208 23.0453 28.8437 23.1261C28.9666 23.2068 29.0631 23.3218 29.1214 23.4568C29.1797 23.5918 29.1972 23.741 29.1717 23.8858C29.1462 24.0306 29.0789 24.1648 28.978 24.2718L20.9455 32.8058C20.8289 32.9298 20.6738 33.0106 20.5054 33.0351C20.337 33.0596 20.1653 33.0264 20.0183 32.9408C19.8712 32.8552 19.7575 32.7223 19.6956 32.5638C19.6337 32.4053 19.6273 32.2305 19.6775 32.0679L21.3867 26.5187H18.39C18.2429 26.5187 18.0991 26.4757 17.9762 26.3949C17.8533 26.3142 17.7567 26.1992 17.6984 26.0642C17.6401 25.9292 17.6226 25.78 17.6481 25.6352C17.6736 25.4904 17.7409 25.3562 17.8418 25.2492L25.8728 16.7152C25.9893 16.5911 26.1445 16.5101 26.313 16.4855C26.4815 16.4608 26.6533 16.494 26.8005 16.5797V16.5812Z" fill="white"/>
<path d="M15.3829 18.7324H21.9065L20.4909 20.2383H15.3829C14.9835 20.2383 14.6005 20.397 14.3181 20.6794C14.0357 20.9618 13.877 21.3448 13.877 21.7442V27.7679C13.877 28.1673 14.0357 28.5503 14.3181 28.8327C14.6005 29.1151 14.9835 29.2738 15.3829 29.2738H18.967L18.5031 30.7797H15.3829C14.5841 30.7797 13.8181 30.4624 13.2532 29.8975C12.6884 29.3327 12.3711 28.5666 12.3711 27.7679V21.7442C12.3711 20.9455 12.6884 20.1794 13.2532 19.6146C13.8181 19.0497 14.5841 18.7324 15.3829 18.7324Z" fill="white"/>
<path d="M15.3867 21.7442H19.0762L16.7541 24.2124C16.5144 24.4671 16.3372 24.774 16.2364 25.1089C16.1355 25.4437 16.1138 25.7974 16.1729 26.1421C16.2321 26.4868 16.3704 26.8131 16.5771 27.0952C16.7838 27.3773 17.0531 27.6076 17.364 27.7679H15.3867V21.7442ZM28.33 18.7324L27.8662 20.2383H30.4458C30.8452 20.2383 31.2282 20.397 31.5106 20.6794C31.793 20.9618 31.9517 21.3448 31.9517 21.7442V27.7679C31.9517 28.1673 31.793 28.5503 31.5106 28.8327C31.2282 29.1151 30.8452 29.2738 30.4458 29.2738H26.3437L24.9251 30.7797H30.4458C31.2446 30.7797 32.0106 30.4624 32.5755 29.8975C33.1403 29.3327 33.4576 28.5666 33.4576 27.7679V21.7442C33.4576 20.9455 33.1403 20.1794 32.5755 19.6146C32.0106 19.0497 31.2446 18.7324 30.4458 18.7324H28.33Z" fill="white"/>
<path d="M30.4526 27.7746H27.7676L30.0897 25.3064C30.2363 25.1498 30.3572 24.9791 30.4526 24.7944V27.7746ZM30.4526 22.7238V21.751H29.4798C29.8973 21.9662 30.2374 22.3063 30.4526 22.7238ZM36.4762 24.7628C36.4762 25.3619 36.2383 25.9364 35.8146 26.36C35.391 26.7837 34.8165 27.0217 34.2174 27.0217V22.5039C34.8165 22.5039 35.391 22.7419 35.8146 23.1655C36.2383 23.5892 36.4762 24.1637 36.4762 24.7628Z" fill="white"/>
</g>
<defs>
<linearGradient id="paint0_linear_674_9" x1="24.5211" y1="0.0859375" x2="24.5211" y2="48.1008" gradientUnits="userSpaceOnUse">
<stop stop-color="#F4815A"/>
<stop offset="1" stop-color="#F25E53"/>
</linearGradient>
<clipPath id="clip0_674_9">
<rect width="24.0945" height="24.0945" fill="white" transform="translate(12.3691 12.7139)"/>
</clipPath>
</defs>
</svg>

<svg xmlns="http://www.w3.org/2000/svg" width="49" height="49" fill="none"><circle cx="24.521" cy="24.093" r="24.007" fill="url(#a)"/><g fill="#fff" clip-path="url(#b)"><path d="M26.8 16.581a.75.75 0 0 1 .34.874l-1.707 5.547h2.997a.752.752 0 0 1 .548 1.27l-8.033 8.534a.753.753 0 0 1-1.268-.738l1.71-5.55H18.39a.753.753 0 0 1-.548-1.269l8.03-8.534a.75.75 0 0 1 .928-.135z"/><path d="M15.383 18.732h6.524l-1.416 1.506h-5.108a1.506 1.506 0 0 0-1.506 1.506v6.024a1.506 1.506 0 0 0 1.506 1.506h3.584l-.464 1.506h-3.12a3.01 3.01 0 0 1-3.012-3.012v-6.024a3.01 3.01 0 0 1 3.012-3.012"/><path d="M15.387 21.744h3.69l-2.323 2.468a2.257 2.257 0 0 0 .61 3.556h-1.977zm12.943-3.012-.464 1.506h2.58a1.506 1.506 0 0 1 1.506 1.506v6.024a1.506 1.506 0 0 1-1.506 1.506h-4.102l-1.419 1.506h5.52a3.01 3.01 0 0 0 3.013-3.012v-6.024a3.01 3.01 0 0 0-3.012-3.012z"/><path d="M30.453 27.775h-2.685l2.322-2.469q.219-.234.363-.512zm0-5.051v-.973h-.973c.417.215.757.555.973.973m6.023 2.039a2.26 2.26 0 0 1-2.259 2.259v-4.518a2.26 2.26 0 0 1 2.26 2.259"/></g><defs><linearGradient id="a" x1="24.521" x2="24.521" y1=".086" y2="48.101" gradientUnits="userSpaceOnUse"><stop stop-color="#F4815A"/><stop offset="1" stop-color="#F25E53"/></linearGradient><clipPath id="b"><path fill="#fff" d="M12.37 12.714h24.094v24.095H12.37z"/></clipPath></defs></svg>
